; HEADER_BLOCK_START
; generated by OrcaSlicer 1.8.0-beta2 on 2023-12-01 at 17:16:46
; total layer number: 1
; HEADER_BLOCK_END

; THUMBNAIL_BLOCK_START
; THUMBNAIL_BLOCK_END

; external perimeters extrusion width = 0.40mm
; perimeters extrusion width = 0.45mm
; infill extrusion width = 0.45mm
; solid infill extrusion width = 0.40mm
; top infill extrusion width = 0.40mm
; first layer extrusion width = 0.50mm

; external perimeters extrusion width = 0.40mm
; perimeters extrusion width = 0.45mm
; infill extrusion width = 0.45mm
; solid infill extrusion width = 0.40mm
; top infill extrusion width = 0.40mm
; first layer extrusion width = 0.50mm

; external perimeters extrusion width = 0.40mm
; perimeters extrusion width = 0.45mm
; infill extrusion width = 0.45mm
; solid infill extrusion width = 0.40mm
; top infill extrusion width = 0.40mm
; first layer extrusion width = 0.50mm

; external perimeters extrusion width = 0.40mm
; perimeters extrusion width = 0.45mm
; infill extrusion width = 0.45mm
; solid infill extrusion width = 0.40mm
; top infill extrusion width = 0.40mm
; first layer extrusion width = 0.50mm

; external perimeters extrusion width = 0.40mm
; perimeters extrusion width = 0.45mm
; infill extrusion width = 0.45mm
; solid infill extrusion width = 0.40mm
; top infill extrusion width = 0.40mm
; first layer extrusion width = 0.50mm

; EXECUTABLE_BLOCK_START
EXCLUDE_OBJECT_DEFINE NAME=Cube_id_0_copy_0 CENTER=26.4335,25.874 POLYGON=[[11.4335,10.874],[41.4335,10.874],[41.4335,40.874],[11.4335,40.874],[11.4335,10.874]]
EXCLUDE_OBJECT_DEFINE NAME=Cube_id_1_copy_0 CENTER=174.66,25.6611 POLYGON=[[159.66,10.6611],[189.66,10.6611],[189.66,40.6611],[159.66,40.6611],[159.66,10.6611]]
EXCLUDE_OBJECT_DEFINE NAME=Cube_id_2_copy_0 CENTER=26.4376,274.973 POLYGON=[[11.4376,259.973],[41.4376,259.973],[41.4376,289.973],[11.4376,289.973],[11.4376,259.973]]
EXCLUDE_OBJECT_DEFINE NAME=Cube_id_3_copy_0 CENTER=175.432,275.057 POLYGON=[[160.432,260.057],[190.432,260.057],[190.432,290.057],[160.432,290.057],[160.432,260.057]]
EXCLUDE_OBJECT_DEFINE NAME=Cube_id_4_copy_0 CENTER=100.047,150.752 POLYGON=[[85.0473,135.752],[115.047,135.752],[115.047,165.752],[85.0473,165.752],[85.0473,135.752]]
M73 P0 R5
;TYPE:Custom
PRINT_START EXTRUDER=230 BED=60
G90
G21
M83 ; use relative distances for extrusion
; filament start gcode
T0
SET_PRESSURE_ADVANCE ADVANCE=0.2
T0
M106 S0
;LAYER_CHANGE
;Z:0.2
;HEIGHT:0.2
;BEFORE_LAYER_CHANGE
;0.2
G92 E0

;AFTER_LAYER_CHANGE
;0.2
TIMELAPSE_TAKE_FRAME
;_SET_FAN_SPEED_CHANGING_LAYER
SET_VELOCITY_LIMIT ACCEL=500 ACCEL_TO_DECEL=250
G1 E-.8 F3000
G1 Z.4 F12000
G1 X6.685 Y6.756
G1 Z.4
G1 Z.2
G1 E.8 F3000
;TYPE:Skirt
;WIDTH:0.5
G1 X8.425 Y5.355 E.08319
G1 X11.424 Y4.589 E.1153
G1 X189.66 Y4.376 E6.63859
M73 P1 R4
G1 X191.858 Y4.772 E.08319
G1 X193.778 Y5.913 E.08319
G1 X195.178 Y7.653 E.08319
G1 X195.945 Y10.642 E.11493
G1 X196.718 Y260.038 E9.2891
M73 P3 R4
G1 X196.718 Y290.057 E1.11811
G1 X196.321 Y292.255 E.08319
G1 X195.181 Y294.176 E.08319
G1 X193.441 Y295.576 E.08319
G1 X190.432 Y296.343 E.11563
G1 X11.434 Y296.258 E6.66701
M73 P4 R4
G1 X9.236 Y295.86 E.08319
G1 X7.317 Y294.719 E.08319
G1 X5.917 Y292.978 E.08319
G1 X5.152 Y289.973 E.1155
G1 X5.148 Y10.874 E10.39538
M73 P6 R4
G1 X5.545 Y8.676 E.08319
G1 X6.665 Y6.79 E.0817
G1 X7.071 Y7.043 F12000
G1 F3000
G1 X7.137 Y6.935 E.00471
G1 X8.858 Y5.646 E.08008
G1 X11.425 Y5.046 E.0982
G1 X189.66 Y4.833 E6.63857
M73 P7 R4
G1 X191.773 Y5.229 E.08008
G1 X193.598 Y6.365 E.08008
G1 X194.888 Y8.085 E.08008
G1 X195.488 Y10.643 E.09785
G1 X196.261 Y260.039 E9.2891
M73 P9 R4
G1 X196.261 Y290.057 E1.11806
G1 X195.864 Y292.17 E.08008
G1 X194.728 Y293.996 E.08008
G1 X193.008 Y295.286 E.08008
G1 X190.432 Y295.886 E.0985
G1 X11.434 Y295.801 E6.667
M73 P10 R4
G1 X9.321 Y295.404 E.08008
G1 X7.496 Y294.267 E.08008
M73 P11 R4
G1 X6.208 Y292.546 E.08008
G1 X5.609 Y289.973 E.09838
G1 X5.605 Y10.874 E10.39538
M73 P12 R4
G1 X6.002 Y8.761 E.08008
G1 X7.05 Y7.077 E.07388
G1 X7.448 Y7.338 F12000
G1 F3000
G1 X7.589 Y7.123 E.00955
G1 X9.287 Y5.95 E.07685
G1 X11.426 Y5.503 E.08141
M73 P13 R4
G1 X189.66 Y5.29 E6.63854
M73 P14 R4
G1 X191.685 Y5.686 E.07685
G1 X193.411 Y6.816 E.07685
G1 X194.583 Y8.514 E.07685
G1 X195.031 Y10.644 E.08108
G1 X195.804 Y260.057 E9.28972
M73 P15 R4
G1 X195.804 Y290.057 E1.11739
M73 P16 R4
G1 X195.407 Y292.082 E.07685
G1 X194.277 Y293.808 E.07685
G1 X192.579 Y294.981 E.07685
G1 X190.432 Y295.428 E.08169
G1 X11.435 Y295.344 E6.66699
M73 P17 R4
G1 X9.41 Y294.947 E.07685
G1 X7.684 Y293.815 E.07685
G1 X6.513 Y292.117 E.07685
G1 X6.066 Y289.973 E.08157
G1 X6.062 Y10.874 E10.39538
M73 P19 R4
G1 X6.459 Y8.849 E.07685
G1 X7.426 Y7.371 E.0658
G1 X7.817 Y7.642 F12000
G1 F3000
G1 X8.039 Y7.32 E.01456
G1 X9.71 Y6.272 E.07347
G1 X11.426 Y5.96 E.06497
G1 X189.66 Y5.747 E6.63852
M73 P20 R4
G1 X191.592 Y6.143 E.07347
G1 X193.213 Y7.267 E.07347
G1 X194.262 Y8.938 E.07347
G1 X194.574 Y10.646 E.06467
G1 X195.347 Y260.057 E9.28967
M73 P22 R3
G1 X195.347 Y290.057 E1.11739
G1 X194.951 Y291.99 E.07347
G1 X193.827 Y293.611 E.07347
G1 X192.156 Y294.659 E.07347
G1 X190.432 Y294.971 E.06523
G1 X11.435 Y294.887 E6.66698
M73 P23 R3
G1 X9.503 Y294.49 E.07347
G1 X7.882 Y293.365 E.07347
G1 X6.835 Y291.694 E.07347
G1 X6.523 Y289.973 E.06513
G1 X6.519 Y10.874 E10.39538
M73 P25 R3
G1 X6.915 Y8.941 E.07347
G1 X7.794 Y7.674 E.05742
G1 X8.173 Y7.955 F12000
G1 F3000
G1 X8.488 Y7.529 E.01975
G1 X10.127 Y6.613 E.06994
G1 X11.427 Y6.417 E.04896
G1 X189.66 Y6.204 E6.63849
M73 P26 R3
G1 X191.495 Y6.6 E.06994
G1 X193.005 Y7.716 E.06994
G1 X193.921 Y9.355 E.06994
G1 X194.117 Y10.647 E.04868
G1 X194.889 Y260.057 E9.28962
M73 P28 R3
G1 X194.889 Y290.057 E1.11739
G1 X194.494 Y291.893 E.06994
G1 X193.378 Y293.403 E.06994
G1 X191.739 Y294.319 E.06994
G1 X190.432 Y294.514 E.04919
G1 X11.435 Y294.43 E6.66697
M73 P30 R3
G1 X9.6 Y294.033 E.06994
G1 X8.091 Y292.916 E.06994
G1 X7.175 Y291.277 E.06994
G1 X6.98 Y289.973 E.0491
G1 X6.976 Y10.874 E10.39538
M73 P31 R3
G1 X7.372 Y9.038 E.06994
G1 X8.149 Y7.987 E.0487
; printing object Cube id:3 copy 0
M73 P32 R3
G1 E-.56
;WIPE_START
G1 X8.488 Y7.529 E-.13684
G1 X8.863 Y7.319 E-.10316
;WIPE_END
EXCLUDE_OBJECT_START NAME=Cube_id_3_copy_0
G1 Z.6 F12000
G1 X161.639 Y260.764 Z.6
G1 Z.2
G1 E.8 F3000
;TYPE:Inner wall
;WIDTH:0.499999
G1 X189.725 Y260.764 E1.04609
G1 X189.725 Y289.35 E1.06471
M73 P33 R3
G1 X161.139 Y289.35 E1.06471
G1 X161.139 Y260.764 E1.06471
G1 X161.599 Y260.764 E.01713
G1 E-.8
G1 Z.6 F12000
G1 X160.682 Y260.307 Z.6
G1 Z.2
G1 E.8 F3000
;TYPE:Outer wall
G1 X190.182 Y260.307 E1.09876
G1 X190.182 Y289.807 E1.09876
M73 P34 R3
G1 X160.682 Y289.807 E1.09876
G1 X160.682 Y260.347 E1.09727
G1 X160.76 Y260.328
G1 E-.8
G1 Z.6 F12000
G1 X188.656 Y260.901 Z.6
G1 Z.2
G1 E.8 F3000
;TYPE:Bottom surface
;WIDTH:0.503877
G1 F6300
G1 X189.382 Y261.628 E.03859
G1 X189.382 Y262.28 E.02449
G1 X188.21 Y261.107 E.0623
G1 X187.558 Y261.107 E.02449
G1 X189.382 Y262.932 E.09692
G1 X189.382 Y263.584 E.02449
G1 X186.906 Y261.107 E.13155
G1 X186.254 Y261.107 E.02449
G1 X189.382 Y264.235 E.16618
G1 X189.382 Y264.887 E.02449
M73 P35 R3
G1 X185.602 Y261.107 E.20081
G1 X184.95 Y261.107 E.02449
G1 X189.382 Y265.539 E.23544
G1 X189.382 Y266.191 E.02449
G1 X184.298 Y261.107 E.27007
G1 X183.647 Y261.107 E.02449
G1 X189.382 Y266.843 E.3047
G1 X189.382 Y267.495 E.02449
G1 X182.995 Y261.107 E.33933
G1 X182.343 Y261.107 E.02449
G1 X189.382 Y268.147 E.37396
G1 X189.382 Y268.799 E.02449
G1 X181.691 Y261.107 E.40859
G1 X181.039 Y261.107 E.02449
G1 X189.382 Y269.451 E.44322
G1 X189.382 Y270.103 E.02449
G1 X180.387 Y261.107 E.47784
G1 X179.735 Y261.107 E.02449
G1 X189.382 Y270.754 E.51247
G1 X189.382 Y271.406 E.02449
G1 X179.083 Y261.107 E.5471
M73 P36 R3
G1 X178.431 Y261.107 E.02449
G1 X189.382 Y272.058 E.58173
G1 X189.382 Y272.71 E.02449
G1 X177.779 Y261.107 E.61636
G1 X177.128 Y261.107 E.02449
G1 X189.382 Y273.362 E.65099
G1 X189.382 Y274.014 E.02449
G1 X176.476 Y261.107 E.68562
G1 X175.824 Y261.107 E.02449
G1 X189.382 Y274.666 E.72025
G1 X189.382 Y275.318 E.02449
G1 X175.172 Y261.107 E.75488
G1 X174.52 Y261.107 E.02449
G1 X189.382 Y275.97 E.78951
G1 X189.382 Y276.621 E.02449
G1 X173.868 Y261.107 E.82414
M73 P37 R3
G1 X173.216 Y261.107 E.02449
G1 X189.382 Y277.273 E.85876
G1 X189.382 Y277.925 E.02449
G1 X172.564 Y261.107 E.89339
G1 X171.912 Y261.107 E.02449
G1 X189.382 Y278.577 E.92802
G1 X189.382 Y279.229 E.02449
G1 X171.261 Y261.107 E.96265
G1 X170.609 Y261.107 E.02449
G1 X189.382 Y279.881 E.99728
G1 X189.382 Y280.533 E.02449
G1 X169.957 Y261.107 E1.03191
M73 P38 R3
G1 X169.305 Y261.107 E.02449
G1 X189.382 Y281.185 E1.06654
G1 X189.382 Y281.837 E.02449
G1 X168.653 Y261.107 E1.10117
G1 X168.001 Y261.107 E.02449
G1 X189.382 Y282.488 E1.1358
G1 X189.382 Y283.14 E.02449
G1 X167.349 Y261.107 E1.17043
G1 X166.697 Y261.107 E.02449
G1 X189.382 Y283.792 E1.20506
G1 X189.382 Y284.444 E.02449
G1 X166.045 Y261.107 E1.23968
M73 P39 R3
G1 X165.394 Y261.107 E.02449
G1 X189.382 Y285.096 E1.27431
G1 X189.382 Y285.748 E.02449
G1 X164.742 Y261.107 E1.30894
G1 X164.09 Y261.107 E.02449
G1 X189.382 Y286.4 E1.34357
G1 X189.382 Y287.052 E.02449
G1 X163.438 Y261.107 E1.3782
G1 X162.786 Y261.107 E.02449
G1 X189.382 Y287.704 E1.41283
G1 X189.382 Y288.355 E.02449
G1 X162.134 Y261.107 E1.44746
M73 P40 R3
G1 X161.482 Y261.107 E.02448
G1 X189.382 Y289.007 E1.48208
G1 X188.731 Y289.007 E.02449
G1 X161.482 Y261.759 E1.44745
G1 X161.482 Y262.411 E.02449
G1 X188.079 Y289.007 E1.41282
M73 P40 R2
G1 X187.427 Y289.007 E.02449
G1 X161.482 Y263.063 E1.3782
G1 X161.482 Y263.715 E.02449
G1 X186.775 Y289.007 E1.34357
M73 P41 R2
G1 X186.123 Y289.007 E.02449
G1 X161.482 Y264.367 E1.30894
G1 X161.482 Y265.018 E.02449
G1 X185.471 Y289.007 E1.27431
G1 X184.819 Y289.007 E.02449
G1 X161.482 Y265.67 E1.23968
G1 X161.482 Y266.322 E.02449
G1 X184.167 Y289.007 E1.20505
G1 X183.515 Y289.007 E.02449
G1 X161.482 Y266.974 E1.17042
M73 P42 R2
G1 X161.482 Y267.626 E.02449
G1 X182.864 Y289.007 E1.13579
G1 X182.212 Y289.007 E.02449
G1 X161.482 Y268.278 E1.10116
G1 X161.482 Y268.93 E.02449
G1 X181.56 Y289.007 E1.06653
G1 X180.908 Y289.007 E.02449
G1 X161.482 Y269.582 E1.0319
G1 X161.482 Y270.234 E.02449
G1 X180.256 Y289.007 E.99728
G1 X179.604 Y289.007 E.02449
G1 X161.482 Y270.886 E.96265
G1 X161.482 Y271.537 E.02449
G1 X178.952 Y289.007 E.92802
M73 P43 R2
G1 X178.3 Y289.007 E.02449
G1 X161.482 Y272.189 E.89339
G1 X161.482 Y272.841 E.02449
G1 X177.648 Y289.007 E.85876
G1 X176.996 Y289.007 E.02449
G1 X161.482 Y273.493 E.82413
G1 X161.482 Y274.145 E.02449
G1 X176.345 Y289.007 E.7895
G1 X175.693 Y289.007 E.02449
G1 X161.482 Y274.797 E.75487
G1 X161.482 Y275.449 E.02449
G1 X175.041 Y289.007 E.72024
G1 X174.389 Y289.007 E.02449
G1 X161.482 Y276.101 E.68561
M73 P44 R2
G1 X161.482 Y276.753 E.02449
G1 X173.737 Y289.007 E.65098
G1 X173.085 Y289.007 E.02449
G1 X161.482 Y277.404 E.61636
G1 X161.482 Y278.056 E.02449
G1 X172.433 Y289.007 E.58173
G1 X171.781 Y289.007 E.02449
G1 X161.482 Y278.708 E.5471
G1 X161.482 Y279.36 E.02449
G1 X171.129 Y289.007 E.51247
G1 X170.478 Y289.007 E.02449
G1 X161.482 Y280.012 E.47784
G1 X161.482 Y280.664 E.02449
G1 X169.826 Y289.007 E.44321
G1 X169.174 Y289.007 E.02449
G1 X161.482 Y281.316 E.40858
M73 P45 R2
G1 X161.482 Y281.968 E.02449
G1 X168.522 Y289.007 E.37395
G1 X167.87 Y289.007 E.02449
G1 X161.482 Y282.62 E.33932
G1 X161.482 Y283.271 E.02449
G1 X167.218 Y289.007 E.30469
G1 X166.566 Y289.007 E.02449
G1 X161.482 Y283.923 E.27007
G1 X161.482 Y284.575 E.02449
G1 X165.914 Y289.007 E.23544
G1 X165.262 Y289.007 E.02449
G1 X161.482 Y285.227 E.20081
G1 X161.482 Y285.879 E.02449
G1 X164.611 Y289.007 E.16618
G1 X163.959 Y289.007 E.02449
G1 X161.482 Y286.531 E.13155
G1 X161.482 Y287.183 E.02449
G1 X163.307 Y289.007 E.09692
G1 X162.655 Y289.007 E.02449
G1 X161.482 Y287.835 E.06229
G1 X161.482 Y288.487 E.02449
G1 X162.209 Y289.213 E.03859
; stop printing object Cube id:3 copy 0
; printing object Cube id:2 copy 0
G1 E-.56 F3000
;WIPE_START
G1 F6300
G1 X161.502 Y288.506 E-.24
;WIPE_END
EXCLUDE_OBJECT_END NAME=Cube_id_3_copy_0
EXCLUDE_OBJECT_START NAME=Cube_id_2_copy_0
G1 Z.6 F12000
G1 X12.645 Y260.68 Z.6
M73 P46 R2
G1 Z.2
G1 E.8 F3000
;TYPE:Inner wall
;WIDTH:0.499999
G1 X40.73 Y260.68 E1.04609
G1 X40.73 Y289.266 E1.06471
G1 X12.145 Y289.266 E1.06471
G1 X12.145 Y260.68 E1.06471
M73 P47 R2
G1 X12.605 Y260.68 E.01713
G1 E-.8
G1 Z.6 F12000
G1 X11.688 Y260.223 Z.6
G1 Z.2
G1 E.8 F3000
;TYPE:Outer wall
G1 X41.188 Y260.223 E1.09876
G1 X41.188 Y289.723 E1.09876
G1 X11.688 Y289.723 E1.09876
G1 X11.688 Y260.263 E1.09727
M73 P48 R2
G1 X11.765 Y260.244
G1 E-.8
G1 Z.6 F12000
G1 X39.661 Y260.817 Z.6
G1 Z.2
G1 E.8 F3000
;TYPE:Bottom surface
;WIDTH:0.503877
G1 F6300
G1 X40.388 Y261.544 E.03859
G1 X40.388 Y262.196 E.02449
G1 X39.215 Y261.023 E.0623
G1 X38.563 Y261.023 E.02449
G1 X40.388 Y262.847 E.09692
G1 X40.388 Y263.499 E.02449
G1 X37.911 Y261.023 E.13155
G1 X37.259 Y261.023 E.02449
G1 X40.388 Y264.151 E.16618
G1 X40.388 Y264.803 E.02449
G1 X36.607 Y261.023 E.20081
G1 X35.956 Y261.023 E.02449
G1 X40.388 Y265.455 E.23544
G1 X40.388 Y266.107 E.02449
G1 X35.304 Y261.023 E.27007
G1 X34.652 Y261.023 E.02449
G1 X40.388 Y266.759 E.3047
G1 X40.388 Y267.411 E.02449
G1 X34 Y261.023 E.33933
G1 X33.348 Y261.023 E.02449
G1 X40.388 Y268.063 E.37396
M73 P49 R2
G1 X40.388 Y268.714 E.02449
G1 X32.696 Y261.023 E.40859
G1 X32.044 Y261.023 E.02449
G1 X40.388 Y269.366 E.44322
G1 X40.388 Y270.018 E.02449
G1 X31.392 Y261.023 E.47784
G1 X30.74 Y261.023 E.02449
G1 X40.388 Y270.67 E.51247
G1 X40.388 Y271.322 E.02449
G1 X30.088 Y261.023 E.5471
G1 X29.437 Y261.023 E.02449
G1 X40.388 Y271.974 E.58173
G1 X40.388 Y272.626 E.02449
G1 X28.785 Y261.023 E.61636
G1 X28.133 Y261.023 E.02449
G1 X40.388 Y273.278 E.65099
G1 X40.388 Y273.93 E.02449
G1 X27.481 Y261.023 E.68562
M73 P50 R2
G1 X26.829 Y261.023 E.02449
G1 X40.388 Y274.581 E.72025
G1 X40.388 Y275.233 E.02449
G1 X26.177 Y261.023 E.75488
G1 X25.525 Y261.023 E.02449
G1 X40.388 Y275.885 E.78951
G1 X40.388 Y276.537 E.02449
G1 X24.873 Y261.023 E.82414
G1 X24.221 Y261.023 E.02449
G1 X40.388 Y277.189 E.85876
G1 X40.388 Y277.841 E.02449
G1 X23.57 Y261.023 E.89339
G1 X22.918 Y261.023 E.02449
G1 X40.388 Y278.493 E.92802
M73 P51 R2
G1 X40.388 Y279.145 E.02449
G1 X22.266 Y261.023 E.96265
G1 X21.614 Y261.023 E.02449
G1 X40.388 Y279.797 E.99728
G1 X40.388 Y280.449 E.02449
G1 X20.962 Y261.023 E1.03191
G1 X20.31 Y261.023 E.02449
G1 X40.388 Y281.1 E1.06654
G1 X40.388 Y281.752 E.02449
G1 X19.658 Y261.023 E1.10117
G1 X19.006 Y261.023 E.02449
G1 X40.388 Y282.404 E1.1358
M73 P52 R2
G1 X40.388 Y283.056 E.02449
G1 X18.354 Y261.023 E1.17043
G1 X17.703 Y261.023 E.02449
G1 X40.388 Y283.708 E1.20506
G1 X40.388 Y284.36 E.02449
G1 X17.051 Y261.023 E1.23968
G1 X16.399 Y261.023 E.02449
G1 X40.388 Y285.012 E1.27431
G1 X40.388 Y285.664 E.02449
G1 X15.747 Y261.023 E1.30894
G1 X15.095 Y261.023 E.02449
G1 X40.388 Y286.316 E1.34357
M73 P53 R2
G1 X40.388 Y286.967 E.02449
G1 X14.443 Y261.023 E1.3782
G1 X13.791 Y261.023 E.02449
G1 X40.388 Y287.619 E1.41283
G1 X40.388 Y288.271 E.02449
G1 X13.139 Y261.023 E1.44746
G1 X12.487 Y261.023 E.02448
G1 X40.388 Y288.923 E1.48208
G1 X39.736 Y288.923 E.02449
G1 X12.487 Y261.675 E1.44745
M73 P54 R2
G1 X12.487 Y262.327 E.02449
G1 X39.084 Y288.923 E1.41282
G1 X38.432 Y288.923 E.02449
G1 X12.487 Y262.979 E1.3782
G1 X12.487 Y263.63 E.02449
G1 X37.78 Y288.923 E1.34357
G1 X37.128 Y288.923 E.02449
G1 X12.487 Y264.282 E1.30894
G1 X12.487 Y264.934 E.02449
G1 X36.476 Y288.923 E1.27431
M73 P55 R2
G1 X35.824 Y288.923 E.02449
G1 X12.487 Y265.586 E1.23968
G1 X12.487 Y266.238 E.02449
G1 X35.172 Y288.923 E1.20505
G1 X34.521 Y288.923 E.02449
G1 X12.487 Y266.89 E1.17042
G1 X12.487 Y267.542 E.02449
G1 X33.869 Y288.923 E1.13579
G1 X33.217 Y288.923 E.02449
G1 X12.487 Y268.194 E1.10116
G1 X12.487 Y268.846 E.02449
G1 X32.565 Y288.923 E1.06653
M73 P56 R2
G1 X31.913 Y288.923 E.02449
G1 X12.487 Y269.497 E1.0319
G1 X12.487 Y270.149 E.02449
G1 X31.261 Y288.923 E.99728
G1 X30.609 Y288.923 E.02449
G1 X12.487 Y270.801 E.96265
G1 X12.487 Y271.453 E.02449
