; HEADER_BLOCK_START
; generated by OrcaSlicer 1.8.0-beta2 on 2023-12-01 at 12:24:17
; total layer number: 265
; HEADER_BLOCK_END

; THUMBNAIL_BLOCK_START
; THUMBNAIL_BLOCK_END

; external perimeters extrusion width = 0.40mm
; perimeters extrusion width = 0.45mm
; infill extrusion width = 0.45mm
; solid infill extrusion width = 0.40mm
; top infill extrusion width = 0.40mm
; first layer extrusion width = 0.50mm

; external perimeters extrusion width = 0.40mm
; perimeters extrusion width = 0.45mm
; infill extrusion width = 0.45mm
; solid infill extrusion width = 0.40mm
; top infill extrusion width = 0.40mm
; first layer extrusion width = 0.50mm

; external perimeters extrusion width = 0.40mm
; perimeters extrusion width = 0.45mm
; infill extrusion width = 0.45mm
; solid infill extrusion width = 0.40mm
; top infill extrusion width = 0.40mm
; first layer extrusion width = 0.50mm

; external perimeters extrusion width = 0.40mm
; perimeters extrusion width = 0.45mm
; infill extrusion width = 0.45mm
; solid infill extrusion width = 0.40mm
; top infill extrusion width = 0.40mm
; first layer extrusion width = 0.50mm

; external perimeters extrusion width = 0.40mm
; perimeters extrusion width = 0.45mm
; infill extrusion width = 0.45mm
; solid infill extrusion width = 0.40mm
; top infill extrusion width = 0.40mm
; first layer extrusion width = 0.50mm

; external perimeters extrusion width = 0.40mm
; perimeters extrusion width = 0.45mm
; infill extrusion width = 0.45mm
; solid infill extrusion width = 0.40mm
; top infill extrusion width = 0.40mm
; first layer extrusion width = 0.50mm

; external perimeters extrusion width = 0.40mm
; perimeters extrusion width = 0.45mm
; infill extrusion width = 0.45mm
; solid infill extrusion width = 0.40mm
; top infill extrusion width = 0.40mm
; first layer extrusion width = 0.50mm

; external perimeters extrusion width = 0.40mm
; perimeters extrusion width = 0.45mm
; infill extrusion width = 0.45mm
; solid infill extrusion width = 0.40mm
; top infill extrusion width = 0.40mm
; first layer extrusion width = 0.50mm

; external perimeters extrusion width = 0.40mm
; perimeters extrusion width = 0.45mm
; infill extrusion width = 0.45mm
; solid infill extrusion width = 0.40mm
; top infill extrusion width = 0.40mm
; first layer extrusion width = 0.50mm

; external perimeters extrusion width = 0.40mm
; perimeters extrusion width = 0.45mm
; infill extrusion width = 0.45mm
; solid infill extrusion width = 0.40mm
; top infill extrusion width = 0.40mm
; first layer extrusion width = 0.50mm

; external perimeters extrusion width = 0.40mm
; perimeters extrusion width = 0.45mm
; infill extrusion width = 0.45mm
; solid infill extrusion width = 0.40mm
; top infill extrusion width = 0.40mm
; first layer extrusion width = 0.50mm

; external perimeters extrusion width = 0.40mm
; perimeters extrusion width = 0.45mm
; infill extrusion width = 0.45mm
; solid infill extrusion width = 0.40mm
; top infill extrusion width = 0.40mm
; first layer extrusion width = 0.50mm

; EXECUTABLE_BLOCK_START
EXCLUDE_OBJECT_DEFINE NAME=fusion_rocket_v5.stl_id_0_copy_0 CENTER=100.976,150.907 POLYGON=[[87.2292,150.907],[87.2406,150.577],[87.2749,150.241],[87.334,149.899],[87.419,149.556],[87.5308,149.213],[87.67,148.875],[87.8364,148.543],[88.0296,148.221],[88.2488,147.912],[88.4923,147.62],[88.7582,147.347],[97.3873,138.72],[97.6893,138.423],[98.0164,138.153],[98.3604,137.915],[98.7214,137.709],[99.0937,137.536],[99.4727,137.396],[99.8543,137.29],[100.234,137.217],[100.609,137.174],[100.976,137.16],[101.305,137.171],[101.642,137.206],[101.983,137.265],[102.327,137.35],[102.669,137.462],[103.008,137.601],[103.34,137.767],[103.662,137.96],[103.97,138.18],[104.263,138.423],[104.535,138.689],[113.163,147.318],[113.46,147.62],[113.73,147.947],[113.967,148.291],[114.174,148.652],[114.347,149.024],[114.486,149.404],[114.592,149.785],[114.666,150.165],[114.709,150.54],[114.723,150.907],[114.711,151.236],[114.677,151.573],[114.618,151.914],[114.533,152.257],[114.421,152.6],[114.282,152.939],[114.115,153.271],[113.922,153.593],[113.703,153.901],[113.46,154.193],[113.194,154.466],[104.565,163.094],[104.263,163.39],[103.935,163.661],[103.591,163.898],[103.23,164.105],[102.858,164.278],[102.479,164.417],[102.098,164.523],[101.717,164.597],[101.343,164.639],[100.976,164.653],[100.646,164.642],[100.31,164.608],[99.9686,164.549],[99.6253,164.464],[99.2826,164.352],[98.9437,164.213],[98.6117,164.046],[98.2899,163.853],[97.9814,163.634],[97.6893,163.39],[97.4164,163.124],[88.7891,154.495],[88.4923,154.193],[88.2221,153.866],[87.9844,153.522],[87.7779,153.161],[87.6047,152.789],[87.4654,152.41],[87.3594,152.028],[87.2859,151.648],[87.2432,151.273],[87.2292,150.907]]
M73 P0 R57
;TYPE:Custom
PRINT_START EXTRUDER=230 BED=60 ISPROBE=0 ISBEDMESH=0
G90
G21
M83 ; use relative distances for extrusion
T0
M104 S230 ; set nozzle temperature
; filament start gcode
T0
SET_PRESSURE_ADVANCE ADVANCE=0.2
M106 S0
;LAYER_CHANGE
;Z:0.2
;HEIGHT:0.2
;BEFORE_LAYER_CHANGE
;0.2
G92 E0

;AFTER_LAYER_CHANGE
;0.2
;_SET_FAN_SPEED_CHANGING_LAYER
SET_VELOCITY_LIMIT ACCEL=500 ACCEL_TO_DECEL=250
G1 E-.8 F3000
G1 Z.4 F6000
G1 X93.895 Y132.931
G1 Z.4
G1 Z.2
G1 E.8 F3000
;TYPE:Skirt
;WIDTH:0.5
G1 X94.759 Y132.331 E.03917
G1 X95.863 Y131.711 E.04716
G1 X96.78 Y131.311 E.03727
G1 X97.867 Y130.953 E.04265
G1 X99.177 Y130.669 E.04992
G1 X100.452 Y130.539 E.04774
G1 X101.488 Y130.54 E.03856
G1 X102.813 Y130.678 E.04963
G1 X104.548 Y131.091 E.06641
G1 X106.294 Y131.819 E.07048
G1 X107.721 Y132.685 E.06216
G1 X109.232 Y133.962 E.07368
G1 X117.88 Y142.611 E.45558
G1 X119.256 Y144.241 E.07945
G1 X119.768 Y145.041 E.03537
G1 X120.396 Y146.279 E.05169
G1 X120.738 Y147.167 E.03545
G1 X121.121 Y148.58 E.05453
G1 X121.317 Y149.956 E.05175
G1 X121.353 Y151.005 E.0391
G1 X121.206 Y152.752 E.06532
G1 X120.755 Y154.591 E.07052
G1 X120.146 Y156.067 E.05944
G1 X119.198 Y157.652 E.06881
G1 X117.921 Y159.163 E.07368
G1 X109.207 Y167.875 E.45895
G1 X107.645 Y169.185 E.07594
G1 X106.46 Y169.912 E.05177
G1 X105.604 Y170.326 E.03543
G1 X104.716 Y170.669 E.03545
G1 X103.302 Y171.052 E.05453
G1 X101.927 Y171.248 E.05175
G1 X100.878 Y171.284 E.0391
G1 X99.13 Y171.136 E.06532
G1 X97.291 Y170.685 E.07052
G1 X95.816 Y170.077 E.05944
G1 X94.231 Y169.128 E.06881
G1 X92.72 Y167.852 E.07368
G1 X84.008 Y159.138 E.45895
G1 X82.698 Y157.575 E.07594
G1 X81.97 Y156.391 E.05177
G1 X81.556 Y155.535 E.03543
G1 X81.214 Y154.647 E.03545
G1 X80.831 Y153.233 E.05453
G1 X80.635 Y151.858 E.05175
G1 X80.597 Y150.854 E.03741
G1 X80.747 Y149.068 E.06676
G1 X81.16 Y147.335 E.06635
G1 X81.867 Y145.625 E.06893
G1 X82.675 Y144.274 E.05864
G1 X84.031 Y142.651 E.07876
G1 X92.681 Y134.002 E.45558
G1 X93.865 Y132.957 E.05882
G1 X94.165 Y133.3 F6000
G1 F3000
G1 X94.991 Y132.725 E.03747
G1 X96.054 Y132.126 E.04547
G1 X96.933 Y131.742 E.03572
G1 X97.977 Y131.397 E.04093
G1 X99.234 Y131.123 E.04792
G1 X100.463 Y130.996 E.04603
G1 X101.455 Y130.996 E.03694
G1 X102.724 Y131.126 E.04753
G1 X104.415 Y131.528 E.06475
G1 X106.069 Y132.217 E.06672
G1 X107.444 Y133.048 E.05984
G1 X108.909 Y134.285 E.07141
G1 X117.557 Y142.935 E.45558
G1 X118.888 Y144.511 E.07685
G1 X119.379 Y145.28 E.03397
G1 X119.972 Y146.451 E.04892
G1 X120.302 Y147.304 E.03406
G1 X120.675 Y148.681 E.05314
G1 X120.861 Y149.983 E.04897
G1 X120.896 Y150.986 E.0374
G1 X120.753 Y152.69 E.06367
G1 X120.326 Y154.432 E.0668
G1 X119.733 Y155.871 E.05798
G1 X118.834 Y157.374 E.06523
G1 X117.598 Y158.839 E.07142
G1 X108.884 Y167.552 E.45895
G1 X107.374 Y168.816 E.07334
G1 X106.254 Y169.505 E.04899
G1 X105.431 Y169.903 E.03404
G1 X104.578 Y170.233 E.03406
G1 X103.201 Y170.606 E.05314
G1 X101.9 Y170.791 E.04897
G1 X100.896 Y170.827 E.0374
G1 X99.193 Y170.684 E.06367
G1 X97.451 Y170.257 E.0668
G1 X96.012 Y169.664 E.05798
G1 X94.508 Y168.765 E.06523
G1 X93.043 Y167.528 E.07142
G1 X84.331 Y158.814 E.45895
G1 X83.066 Y157.305 E.07334
G1 X82.378 Y156.184 E.04899
G1 X81.98 Y155.362 E.03404
G1 X81.65 Y154.509 E.03406
G1 X81.277 Y153.132 E.05314
G1 X81.091 Y151.831 E.04897
G1 X81.054 Y150.869 E.03585
G1 X81.196 Y149.157 E.06396
G1 X81.598 Y147.468 E.06469
G1 X82.267 Y145.846 E.06535
G1 X83.055 Y144.528 E.05721
G1 X84.354 Y142.974 E.07542
G1 X93.004 Y134.326 E.45558
G1 X94.135 Y133.326 E.05622
G1 X94.435 Y133.668 F6000
G1 F3000
G1 X95.223 Y133.119 E.03577
G1 X96.246 Y132.541 E.04378
G1 X97.087 Y132.173 E.03417
G1 X98.086 Y131.841 E.03921
G1 X99.29 Y131.577 E.04592
G1 X100.473 Y131.453 E.04431
G1 X101.421 Y131.452 E.03532
G1 X102.635 Y131.574 E.04542
G1 X104.283 Y131.966 E.06309
G1 X105.844 Y132.614 E.06295
G1 X107.166 Y133.411 E.05752
G1 X108.585 Y134.608 E.06914
G1 X117.234 Y143.258 E.45558
G1 X118.519 Y144.782 E.07425
G1 X118.989 Y145.519 E.03257
G1 X119.549 Y146.624 E.04614
G1 X119.866 Y147.442 E.03266
G1 X120.229 Y148.782 E.05174
G1 X120.404 Y150.01 E.04619
G1 X120.439 Y150.968 E.0357
G1 X120.3 Y152.627 E.06201
G1 X119.898 Y154.272 E.06308
G1 X119.32 Y155.676 E.05653
G1 X118.471 Y157.097 E.06166
G1 X117.274 Y158.516 E.06915
G1 X108.56 Y167.228 E.45895
G1 X107.104 Y168.448 E.07075
G1 X106.047 Y169.097 E.0462
G1 X105.259 Y169.48 E.03265
G1 X104.441 Y169.797 E.03266
G1 X103.1 Y170.16 E.05174
G1 X101.872 Y170.335 E.04619
G1 X100.915 Y170.37 E.0357
G1 X99.256 Y170.231 E.06201
G1 X97.61 Y169.829 E.06308
G1 X96.207 Y169.251 E.05653
G1 X94.786 Y168.402 E.06166
G1 X93.366 Y167.205 E.06915
G1 X84.654 Y158.491 E.45895
G1 X83.435 Y157.035 E.07075
G1 X82.786 Y155.978 E.0462
G1 X82.403 Y155.189 E.03265
G1 X82.086 Y154.372 E.03266
G1 X81.722 Y153.031 E.05174
G1 X81.547 Y151.803 E.04619
G1 X81.511 Y150.883 E.03429
G1 X81.644 Y149.247 E.06116
G1 X82.035 Y147.6 E.06304
G1 X82.667 Y146.067 E.06176
G1 X83.628 Y144.516 E.06796
G1 X84.677 Y143.297 E.0599
G1 X93.327 Y134.649 E.45558
G1 X94.405 Y133.695 E.05363
; printing object fusion rocket v5.stl id:0 copy 0
G1 E-.56
;WIPE_START
G1 X95.223 Y133.119 E-.24
;WIPE_END
EXCLUDE_OBJECT_START NAME=fusion_rocket_v5.stl_id_0_copy_0
G1 Z.6 F6000
G1 X97.215 Y137.44 Z.6
G1 Z.2
G1 E.8 F3000
;TYPE:Brim
G1 X97.612 Y137.149 E.01832
G1 X98.224 Y136.789 E.02645
G1 X98.669 Y136.583 E.01826
G1 X99.215 Y136.388 E.02162
G1 X99.88 Y136.225 E.02548
G1 X100.59 Y136.137 E.02665
G1 X101.091 Y136.126 E.01865
G1 X101.733 Y136.173 E.02401
G1 X102.532 Y136.332 E.03034
G1 X102.916 Y136.448 E.01494
G1 X103.548 Y136.699 E.02531
G1 X104.335 Y137.145 E.0337
G1 X104.875 Y137.557 E.02529
G1 X105.272 Y137.921 E.02007
G1 X105.57 Y138.247 E.01647
G1 X106.041 Y138.886 E.02955
G1 X106.247 Y139.23 E.01493
G1 X106.547 Y139.84 E.02532
G1 X106.83 Y140.699 E.0337
G1 X106.954 Y141.368 E.02532
G1 X106.993 Y141.766 E.01492
G1 X107.083 Y141.926 E.00681
G1 X107.969 Y142.598 E.04146
G1 X108.757 Y143.33 E.04005
G1 X109.425 Y144.082 E.03747
G1 X109.956 Y144.8 E.03325
G1 X110.116 Y144.891 E.00684
G1 X110.688 Y144.952 E.02144
G1 X111.384 Y145.107 E.02655
G1 X112.113 Y145.367 E.02881
G1 X112.556 Y145.579 E.01832
G1 X113.163 Y145.949 E.02645
G1 X113.555 Y146.245 E.0183
G1 X113.921 Y146.572 E.01828
G1 X114.442 Y147.146 E.02889
G1 X114.734 Y147.544 E.0184
G1 X114.991 Y147.962 E.01826
G1 X115.214 Y148.402 E.01838
G1 X115.4 Y148.859 E.01838
G1 X115.549 Y149.333 E.01849
G1 X115.658 Y149.811 E.01826
G1 X115.728 Y150.299 E.01838
G1 X115.757 Y150.791 E.01834
G1 X115.73 Y151.473 E.02542
G1 X115.66 Y151.974 E.01885
G1 X115.501 Y152.651 E.02591
G1 X115.259 Y153.303 E.0259
G1 X115.088 Y153.663 E.01485
G1 X114.738 Y154.265 E.02591
G1 X114.325 Y154.805 E.02534
G1 X113.961 Y155.202 E.02007
G1 X113.635 Y155.501 E.01647
G1 X112.997 Y155.972 E.02955
G1 X112.653 Y156.178 E.01493
G1 X112.043 Y156.477 E.02532
G1 X111.184 Y156.761 E.0337
G1 X110.515 Y156.884 E.02532
G1 X110.119 Y156.924 E.01481
G1 X109.96 Y157.013 E.00678
G1 X109.256 Y157.935 E.04322
G1 X108.571 Y158.67 E.03745
G1 X107.813 Y159.345 E.03778
G1 X107.083 Y159.887 E.03388
G1 X106.992 Y160.046 E.00684
G1 X106.931 Y160.619 E.02145
G1 X106.776 Y161.315 E.02655
G1 X106.516 Y162.043 E.02881
G1 X106.304 Y162.486 E.01828
G1 X106.054 Y162.913 E.01842
G1 X105.637 Y163.486 E.02641
G1 X105.248 Y163.914 E.02155
G1 X104.737 Y164.373 E.02556
G1 X104.341 Y164.663 E.0183
G1 X103.921 Y164.922 E.01838
G1 X103.48 Y165.145 E.01838
G1 X103.024 Y165.331 E.01838
G1 X102.55 Y165.48 E.01849
G1 X102.072 Y165.589 E.01826
G1 X101.583 Y165.658 E.01838
G1 X101.092 Y165.688 E.01834
G1 X100.41 Y165.66 E.02542
G1 X99.909 Y165.591 E.01885
G1 X99.231 Y165.432 E.02591
G1 X98.58 Y165.19 E.0259
G1 X98.219 Y165.019 E.01485
G1 X97.618 Y164.669 E.02591
G1 X97.077 Y164.256 E.02534
G1 X96.68 Y163.892 E.02007
G1 X96.381 Y163.566 E.01647
G1 X95.911 Y162.927 E.02955
G1 X95.704 Y162.584 E.01493
G1 X95.405 Y161.973 E.02532
G1 X95.121 Y161.114 E.0337
G1 X94.998 Y160.446 E.02532
G1 X94.959 Y160.047 E.01492
G1 X94.869 Y159.888 E.00681
G1 X93.967 Y159.203 E.04217
G1 X93.225 Y158.514 E.03773
G1 X92.549 Y157.757 E.03779
G1 X91.992 Y157.013 E.03464
G1 X91.833 Y156.922 E.00681
G1 X91.264 Y156.862 E.02132
G1 X90.568 Y156.707 E.02655
G1 X89.839 Y156.447 E.02881
G1 X89.397 Y156.235 E.01828
G1 X88.97 Y155.985 E.01842
G1 X88.397 Y155.568 E.02641
G1 X87.968 Y155.179 E.02155
G1 X87.51 Y154.668 E.02556
G1 X87.219 Y154.272 E.0183
G1 X86.961 Y153.851 E.01838
G1 X86.738 Y153.411 E.01838
G1 X86.552 Y152.954 E.01838
G1 X86.402 Y152.481 E.01849
G1 X86.294 Y152.003 E.01826
G1 X86.224 Y151.514 E.01838
G1 X86.195 Y151.022 E.01838
G1 X86.241 Y150.15 E.0325
G1 X86.401 Y149.35 E.03039
G1 X86.517 Y148.967 E.01494
G1 X86.775 Y148.321 E.0259
G1 X87.104 Y147.725 E.02537
G1 X87.327 Y147.392 E.01491
G1 X87.626 Y147.009 E.01809
G1 X87.99 Y146.611 E.02011
G1 X88.317 Y146.312 E.01647
G1 X88.955 Y145.842 E.02955
G1 X89.299 Y145.635 E.01493
G1 X89.91 Y145.335 E.02537
G1 X90.568 Y145.109 E.02591
G1 X90.956 Y145.012 E.0149
G1 X91.436 Y144.929 E.01812
G1 X91.835 Y144.889 E.01496
G1 X91.995 Y144.8 E.00681
G1 X92.668 Y143.912 E.04151
G1 X93.357 Y143.168 E.03776
G1 X94.065 Y142.526 E.03561
G1 X94.87 Y141.926 E.03738
G1 X94.96 Y141.767 E.00681
G1 X95.021 Y141.192 E.02152
G1 X95.12 Y140.707 E.01846
G1 X95.258 Y140.233 E.01838
G1 X95.435 Y139.772 E.01838
G1 X95.649 Y139.325 E.01849
G1 X95.896 Y138.903 E.01818
G1 X96.316 Y138.326 E.02657
G1 X96.641 Y137.962 E.0182
G1 X97.185 Y137.467 E.0274
G1 X97.493 Y137.805 F6000
G1 F3000
G1 X97.499 Y137.8 E.00033
G1 X97.858 Y137.536 E.01659
G1 X98.43 Y137.198 E.02475
G1 X98.836 Y137.009 E.01666
G1 X99.354 Y136.825 E.02047
G1 X99.955 Y136.677 E.02306
G1 X100.616 Y136.594 E.02483
G1 X101.086 Y136.583 E.01748
G1 X101.68 Y136.628 E.02221
G1 X102.415 Y136.774 E.02789
G1 X102.771 Y136.882 E.01385
G1 X103.358 Y137.117 E.02355
G1 X104.074 Y137.523 E.03067
G1 X104.576 Y137.904 E.02347
G1 X104.944 Y138.241 E.01857
G1 X105.221 Y138.544 E.01532
G1 X105.656 Y139.134 E.02732
G1 X105.848 Y139.454 E.01386
G1 X106.125 Y140.022 E.02356
G1 X106.384 Y140.804 E.03066
G1 X106.5 Y141.426 E.02358
G1 X106.537 Y141.797 E.01389
G1 X106.601 Y142.002 E.00799
G1 X106.677 Y142.137 E.00575
G1 X106.818 Y142.298 E.00799
G1 X107.68 Y142.953 E.04033
G1 X108.425 Y143.646 E.03788
G1 X109.066 Y144.366 E.03592
G1 X109.581 Y145.06 E.0322
G1 X109.742 Y145.204 E.00803
G1 X109.877 Y145.281 E.00578
G1 X110.082 Y145.347 E.00803
G1 X110.622 Y145.405 E.02023
G1 X111.249 Y145.545 E.02393
G1 X111.943 Y145.792 E.02745
G1 X112.344 Y145.985 E.01656
G1 X112.899 Y146.324 E.02424
G1 X113.269 Y146.602 E.01722
G1 X113.604 Y146.902 E.01675
G1 X114.083 Y147.43 E.02657
G1 X114.351 Y147.795 E.01686
G1 X114.594 Y148.19 E.01728
G1 X114.8 Y148.597 E.01699
G1 X114.972 Y149.02 E.01698
G1 X115.106 Y149.447 E.01668
G1 X115.207 Y149.888 E.01687
G1 X115.273 Y150.351 E.0174
G1 X115.299 Y150.802 E.01683
G1 X115.274 Y151.425 E.02324
G1 X115.209 Y151.897 E.01772
G1 X115.06 Y152.527 E.02413
G1 X114.839 Y153.12 E.02356
G1 X114.681 Y153.455 E.01383
G1 X114.353 Y154.017 E.02422
G1 X113.978 Y154.507 E.02296
G1 X113.642 Y154.874 E.01857
G1 X113.339 Y155.152 E.01532
G1 X112.737 Y155.594 E.0278
G1 X112.429 Y155.779 E.01338
G1 X111.878 Y156.049 E.02286
G1 X111.061 Y156.319 E.03206
G1 X110.456 Y156.43 E.02289
